assets/icons/icons8-nodo-js.svg

<svg xmlns="http://www.w3.org/2000/svg"  viewBox="0 0 32 32" width="32px" height="32px"><path d="M 15.994141 3 C 15.629141 3 15.264219 3.0895313 14.949219 3.2695312 L 5.0390625 8.9902344 C 4.3990625 9.3602344 4 10.060781 4 10.800781 L 4 21.179688 C 4 21.929688 4.3990625 22.620234 5.0390625 22.990234 L 7.640625 24.490234 C 8.900625 25.110234 9.3499219 25.109375 9.9199219 25.109375 C 11.789922 25.109375 12.859375 23.979531 12.859375 22.019531 L 12.859375 11.310547 C 12.859375 11.150547 12.730312 11.019531 12.570312 11.019531 L 11.320312 11.019531 C 11.150313 11.019531 11.029297 11.150547 11.029297 11.310547 L 11.029297 22.009766 C 11.029297 22.889766 10.120391 23.749531 8.6503906 23.019531 L 5.9296875 21.449219 C 5.8296875 21.399219 5.7695313 21.289687 5.7695312 21.179688 L 5.7695312 10.810547 C 5.7695312 10.690547 5.8296875 10.589297 5.9296875 10.529297 L 15.839844 4.8105469 C 15.929844 4.7505469 16.050391 4.7505469 16.150391 4.8105469 L 26.060547 10.529297 C 26.160547 10.589297 26.220703 10.690781 26.220703 10.800781 L 26.220703 21.179688 C 26.220703 21.289687 26.160313 21.399219 26.070312 21.449219 L 16.150391 27.179688 C 16.060391 27.229688 15.929844 27.229688 15.839844 27.179688 L 13.289062 25.669922 C 13.219062 25.619922 13.120781 25.610391 13.050781 25.650391 C 12.340781 26.050391 12.210781 26.100078 11.550781 26.330078 C 11.390781 26.380078 11.140625 26.479766 11.640625 26.759766 L 14.949219 28.720703 C 15.269219 28.900703 15.630234 29 15.990234 29 C 16.360234 29 16.719062 28.900703 17.039062 28.720703 L 26.960938 22.990234 C 27.600938 22.620234 28 21.929688 28 21.179688 L 28 10.810547 C 28 10.060547 27.600938 9.37 26.960938 9 L 17.039062 3.2695312 C 16.724063 3.0895313 16.359141 3 15.994141 3 z M 18.660156 11.005859 C 15.830156 11.005859 14.140625 12.205078 14.140625 14.205078 C 14.140625 16.375078 15.819062 16.974141 18.539062 17.244141 C 21.789062 17.564141 22.039062 18.045547 22.039062 18.685547 C 22.039062 19.785547 21.150547 20.255859 19.060547 20.255859 C 16.430547 20.255859 15.850156 19.594922 15.660156 18.294922 C 15.640156 18.154922 15.520859 18.054688 15.380859 18.054688 L 14.089844 18.054688 C 13.929844 18.054688 13.810547 18.185938 13.810547 18.335938 C 13.810547 20.005937 14.720547 21.994141 19.060547 21.994141 C 22.200547 21.994141 24 20.755703 24 18.595703 C 24 16.455703 22.549766 15.884609 19.509766 15.474609 C 16.419766 15.074609 16.109375 14.864531 16.109375 14.144531 C 16.109375 13.544531 16.380156 12.755859 18.660156 12.755859 C 20.690156 12.755859 21.449766 13.194453 21.759766 14.564453 C 21.789766 14.694453 21.899062 14.794922 22.039062 14.794922 L 23.330078 14.794922 C 23.410078 14.794922 23.479063 14.755313 23.539062 14.695312 C 23.589062 14.645313 23.619375 14.564609 23.609375 14.474609 C 23.409375 12.114609 21.840156 11.005859 18.660156 11.005859 z"/></svg>

<svg xmlns="http://www.w3.org/2000/svg" xmlns:xlink="http://www.w3.org/1999/xlink" viewBox="0,0,256,256" width="32px" height="32px" fill-rule="nonzero"><g fill="#ffffff" fill-rule="nonzero" stroke="none" stroke-width="1" stroke-linecap="butt" stroke-linejoin="miter" stroke-miterlimit="10" stroke-dasharray="" stroke-dashoffset="0" font-family="none" font-weight="none" font-size="none" text-anchor="none" style="mix-blend-mode: normal"><g transform="scale(8,8)"><path d="M15.99414,3c-0.365,0 -0.72992,0.08953 -1.04492,0.26953l-9.91016,5.7207c-0.64,0.37 -1.03906,1.07055 -1.03906,1.81055v10.37891c0,0.75 0.39906,1.44055 1.03906,1.81055l2.60156,1.5c1.26,0.62 1.7093,0.61914 2.2793,0.61914c1.87,0 2.93945,-1.12984 2.93945,-3.08984v-10.70898c0,-0.16 -0.12906,-0.29102 -0.28906,-0.29102h-1.25c-0.17,0 -0.29101,0.13102 -0.29101,0.29102v10.69922c0,0.88 -0.90891,1.73977 -2.37891,1.00977l-2.7207,-1.57031c-0.1,-0.05 -0.16016,-0.15953 -0.16016,-0.26953v-10.36914c0,-0.12 0.06016,-0.22125 0.16016,-0.28125l9.91016,-5.71875c0.09,-0.06 0.21055,-0.06 0.31055,0l9.91016,5.71875c0.1,0.06 0.16016,0.16148 0.16016,0.27148v10.37891c0,0.11 -0.06039,0.21953 -0.15039,0.26953l-9.91992,5.73047c-0.09,0.05 -0.22055,0.05 -0.31055,0l-2.55078,-1.50977c-0.07,-0.05 -0.16828,-0.05953 -0.23828,-0.01953c-0.71,0.4 -0.84,0.44969 -1.5,0.67969c-0.16,0.05 -0.41016,0.14969 0.08984,0.42969l3.30859,1.96094c0.32,0.18 0.68102,0.2793 1.04101,0.2793c0.37,0 0.72883,-0.0993 1.04883,-0.2793l9.92188,-5.73047c0.64,-0.37 1.03906,-1.06055 1.03906,-1.81055v-10.36914c0,-0.75 -0.39906,-1.44055 -1.03906,-1.81055l-9.92188,-5.73047c-0.315,-0.18 -0.67992,-0.26953 -1.04492,-0.26953zM18.66016,11.00586c-2.83,0 -4.51953,1.19922 -4.51953,3.19922c0,2.17 1.67844,2.76906 4.39844,3.03906c3.25,0.32 3.5,0.80141 3.5,1.44141c0,1.1 -0.88852,1.57031 -2.97852,1.57031c-2.63,0 -3.21039,-0.66094 -3.40039,-1.96094c-0.02,-0.14 -0.1393,-0.24023 -0.2793,-0.24023h-1.29101c-0.16,0 -0.2793,0.13125 -0.2793,0.28125c0,1.67 0.91,3.6582 5.25,3.6582c3.14,0 4.93945,-1.23844 4.93945,-3.39844c0,-2.14 -1.45023,-2.71109 -4.49023,-3.12109c-3.09,-0.4 -3.40039,-0.61008 -3.40039,-1.33008c0,-0.6 0.27078,-1.38867 2.55078,-1.38867c2.03,0 2.78961,0.43859 3.09961,1.80859c0.03,0.13 0.1393,0.23047 0.2793,0.23047h1.29102c0.08,0 0.14898,-0.03961 0.20898,-0.09961c0.05,-0.05 0.08031,-0.1307 0.07031,-0.2207c-0.2,-2.36 -1.76922,-3.46875 -4.94922,-3.46875z"></path></g></g></svg>
